svg/24/flame.svg

<svg width="24" height="24" viewBox="0 0 24 24" fill="currentColor" xmlns="http://www.w3.org/2000/svg"><path fill-rule="evenodd" clip-rule="evenodd" d="M11.0577 2.77984C11.3097 3.00413 11.3809 3.369 11.2317 3.67156C11.0436 4.05337 10.9375 4.48344 10.9375 4.94042C10.9375 5.50145 11.0975 6.02284 11.3739 6.46413C11.8834 7.27734 12.7854 7.81542 13.8125 7.81542C14.4336 7.81542 15.0066 7.61935 15.476 7.28565C15.8173 7.04298 16.1035 6.72769 16.3117 6.36284C16.4391 6.13966 16.6718 5.99723 16.9285 5.98539C17.1852 5.97354 17.4301 6.09394 17.5775 6.30444C19.1041 8.48494 20 11.1404 20 14.0029C20 18.3595 16.5176 21.9028 12.1845 22.0008C12.1234 22.0036 12.0618 22.005 12 22.005C11.9382 22.005 11.8766 22.0036 11.8155 22.0008C7.48243 21.9028 4 18.3595 4 14.0029C4 9.26591 6.45169 5.10199 10.1519 2.71014C10.4351 2.52703 10.8058 2.55555 11.0577 2.77984ZM12 20.5029C12.0439 20.5029 12.0877 20.5025 12.1315 20.5016C13.4511 20.4332 14.5 19.3416 14.5 18.005C14.5 16.7495 13.8079 15.4439 13.0231 14.388C12.6545 13.8921 12.2845 13.4767 12 13.1794C11.7155 13.4767 11.3455 13.8921 10.9769 14.388C10.1921 15.4439 9.5 16.7495 9.5 18.005C9.5 19.3416 10.5489 20.4332 11.8685 20.5016C11.9123 20.5025 11.9561 20.5029 12 20.5029ZM18.5 14.0029C18.5 16.1778 17.4318 18.1033 15.7914 19.2832C15.9267 18.8818 16 18.452 16 18.005C16 16.2555 15.0671 14.6236 14.2269 13.4932C13.7971 12.9149 13.3686 12.4377 13.0477 12.1048C12.8869 11.938 12.752 11.8063 12.656 11.7152C12.6079 11.6696 12.5696 11.6341 12.5425 11.6093L12.5104 11.5803L12.5011 11.572L12.4982 11.5694L12.4968 11.5681C12.2132 11.3177 11.7864 11.318 11.5028 11.5685L11.5018 11.5694L11.4989 11.572L11.4896 11.5803L11.4575 11.6093C11.4304 11.6341 11.3921 11.6696 11.344 11.7152C11.248 11.8063 11.1131 11.938 10.9523 12.1048C10.6314 12.4377 10.2029 12.9149 9.77306 13.4932C8.93287 14.6236 8 16.2555 8 18.005C8 18.452 8.07332 18.8818 8.20858 19.2832C6.5682 18.1033 5.5 16.1778 5.5 14.0029C5.5 10.486 7.02044 7.3239 9.44192 5.13846C9.47659 5.91471 9.71403 6.63998 10.1028 7.26049C10.875 8.49308 12.2474 9.31542 13.8125 9.31542C14.7552 9.31542 15.6302 9.01643 16.3451 8.5082C16.5445 8.36644 16.7315 8.20839 16.9042 8.03594C17.9192 9.79104 18.5 11.8283 18.5 14.0029Z"/></svg>

<svg xmlns="http://www.w3.org/2000/svg" width="24" height="24" fill="currentColor" viewBox="0 0 24 24">
  <path fill-rule="evenodd" d="M11.058 2.78a.75.75 0 0 1 .174.892 2.861 2.861 0 0 0-.294 1.269 2.873 2.873 0 0 0 4.539 2.345c.34-.243.627-.558.835-.923a.75.75 0 0 1 1.265-.058A13.38 13.38 0 0 1 20 14.003a8 8 0 1 1-16 0c0-4.737 2.452-8.9 6.152-11.293a.75.75 0 0 1 .906.07ZM12 20.503l.132-.001a2.5 2.5 0 0 0 2.368-2.497c0-1.255-.692-2.561-1.477-3.617A12.909 12.909 0 0 0 12 13.18c-.284.297-.655.712-1.023 1.208-.785 1.056-1.477 2.362-1.477 3.617a2.5 2.5 0 0 0 2.5 2.498Zm6.5-6.5a6.49 6.49 0 0 1-2.709 5.28c.136-.401.209-.83.209-1.278 0-1.75-.933-3.381-1.773-4.512a14.432 14.432 0 0 0-1.684-1.884l-.033-.029-.009-.008-.003-.002-.001-.002a.751.751 0 0 0-.994 0l-.001.002-.003.002-.01.008-.032.03-.113.105a14.437 14.437 0 0 0-1.57 1.778C8.932 14.623 8 16.256 8 18.005c0 .447.073.877.209 1.278a6.492 6.492 0 0 1-2.709-5.28c0-3.517 1.52-6.679 3.942-8.864a4.372 4.372 0 0 0 7.462 2.897 11.88 11.88 0 0 1 1.596 5.967Z" clip-rule="evenodd"/>
</svg>
